modules/feathericon/icons/notice-off.svg

<?xml version="1.0" encoding="UTF-8"?>
<svg width="24px" height="24px" viewBox="0 0 24 24" version="1.1" xmlns="http://www.w3.org/2000/svg" xmlns:xlink="http://www.w3.org/1999/xlink">
    <!-- Generator: sketchtool 52.2 (67145) - http://www.bohemiancoding.com/sketch -->
    <title>notice-off</title>
    <desc>Created with sketchtool.</desc>
    <g id="web-app" stroke="none" stroke-width="1" fill="none" fill-rule="evenodd">
        <g id="notice-off" fill="#000000">
            <path d="M15,18 L15,19 C15,20.6568542 13.6568542,22 12,22 C10.3431458,22 9,20.6568542 9,19 L9,18 L5,18 C4.44999981,18 4,17.5499992 4,17 C4,16.4500008 4.44999981,16 5,16 L6,16 L6,10 C6,9.39382729 6.08989122,8.80864981 6.25707061,8.25707061 L5,7 C4.44771525,6.44771525 4.44771525,5.55228475 5,5 C5.55228475,4.44771525 6.44771525,4.44771525 7,5 L18,16 L19,16 C19.5522847,16 20,16.4477153 20,17 C20,17.55 19.55,18 19,18 L15,18 Z M12,20 C12.5522847,20 13,19.5522847 13,19 C13,18.7251922 13,18.3918589 13,18 L11,18 C11,18.470365 11,18.8036984 11,19 C11,19.5522847 11.4477153,20 12,20 Z M8.8762659,4.8762659 C9.5152502,4.48586932 10.23295,4.21164504 11,4.08295844 L11,3 C11,2.44771525 11.4477153,2 12,2 C12.5522847,2 13,2.44771525 13,3 L13,4.08295844 C15.8377133,4.55903653 18,7.02700371 18,10 L18,14 L8.8762659,4.8762659 Z" id="Shape"></path>
        </g>
    </g>
</svg>

<svg width="24" height="24" viewBox="0 0 24 24" xmlns="http://www.w3.org/2000/svg"><path d="M15 18v1a3 3 0 0 1-6 0v-1H5c-.55 0-1-.45-1-1s.45-1 1-1h1v-6a6 6 0 0 1 .257-1.743L5 7a1.414 1.414 0 1 1 2-2l11 11h1a1 1 0 0 1 0 2h-4zm-3 2a1 1 0 0 0 1-1v-1h-2v1a1 1 0 0 0 1 1zM8.876 4.876A5.962 5.962 0 0 1 11 4.083V3a1 1 0 0 1 2 0v1.083c2.838.476 5 2.944 5 5.917v4L8.876 4.876z" fill="#000" fill-rule="evenodd"/></svg>
